src/icons/folder-angular.svg

<?xml version="1.0" encoding="UTF-8" standalone="no"?>
<svg
   version="1.2"
   viewBox="0 0 16 16"
   width="16"
   height="16"
   id="svg1"
   sodipodi:docname="angular.svg"
   inkscape:version="1.4 (e7c3feb100, 2024-10-09)"
   xmlns:inkscape="http://www.inkscape.org/namespaces/inkscape"
   xmlns:sodipodi="http://sodipodi.sourceforge.net/DTD/sodipodi-0.dtd"
   xmlns="http://www.w3.org/2000/svg"
   xmlns:svg="http://www.w3.org/2000/svg">
  <defs
     id="defs1" />
  <sodipodi:namedview
     id="namedview1"
     pagecolor="#505050"
     bordercolor="#eeeeee"
     borderopacity="1"
     inkscape:showpageshadow="0"
     inkscape:pageopacity="0"
     inkscape:pagecheckerboard="0"
     inkscape:deskcolor="#505050"
     inkscape:zoom="37.75"
     inkscape:cx="8"
     inkscape:cy="8"
     inkscape:window-width="1312"
     inkscape:window-height="755"
     inkscape:window-x="20"
     inkscape:window-y="20"
     inkscape:window-maximized="0"
     inkscape:current-layer="svg1" />
  <title
     id="title1">folder</title>
  <style
     id="style1">
		.s0 { fill: #8080a0 } 
		.s1 { fill: #f1667f } 
	</style>
  <g
     id="Layer 1">
    <path
       id="path1"
       class="s0"
       d="M 4.1992188 1 C 3.0992187 1 2.4996094 0.99921875 2.0996094 1.1992188 C 1.6996094 1.3992188 1.3992188 1.6996094 1.1992188 2.0996094 C 0.99921875 2.4996094 1 3.0992187 1 4.1992188 L 1 9 C 1 10.4 1.0007812 11.099609 1.3007812 11.599609 C 1.5007812 12.099609 1.9003906 12.499219 2.4003906 12.699219 C 2.9003906 12.999219 3.6 13 5 13 L 6.5429688 13 C 6.4953669 12.918409 6.4479925 12.848383 6.4003906 12.800781 L 6.1992188 12.400391 C 6.1992187 12.333724 6.166276 12.232943 6.0996094 12.099609 L 5.5996094 6.8007812 L 5.5996094 6.5996094 C 5.5996094 6.466276 5.6325521 6.3674479 5.6992188 6.3007812 C 5.6992188 6.2341146 5.7341146 6.166276 5.8007812 6.0996094 C 5.8674479 6.0996094 5.966276 6.0666667 6.0996094 6 L 9.9003906 4.6992188 C 9.9670573 4.6325521 10.065885 4.5996094 10.199219 4.5996094 C 10.332552 4.5329427 10.433333 4.5 10.5 4.5 C 10.633333 4.5 10.767057 4.5329427 10.900391 4.5996094 C 11.033724 4.5996094 11.132552 4.6325521 11.199219 4.6992188 L 13.982422 5.6523438 C 13.954538 5.0858091 13.882064 4.7051331 13.699219 4.4003906 C 13.499219 3.9003906 13.099609 3.5007813 12.599609 3.3007812 C 12.099609 3.0007813 11.4 3 10 3 L 8.3007812 3 L 8.0996094 3 C 8.0329427 3 7.9670573 2.9670573 7.9003906 2.9003906 L 7.8007812 2.8007812 L 7.1992188 2.1992188 C 6.6992188 1.6992188 6.5007813 1.5003906 6.3007812 1.4003906 C 6.0341146 1.2670573 5.7666667 1.166276 5.5 1.0996094 C 5.3 0.99960938 5.0007813 1 4.3007812 1 L 4.1992188 1 z " />
    <path
       id="path1 copy 2"
       class="s1"
       d="m10 6l-2.8 1q-0.1 0-0.2 0.1 0 0-0.1 0.1 0 0.1-0.1 0.2 0 0.1 0 0.2l0.5 3.9q0 0.1 0 0.3 0.1 0.1 0.1 0.2 0.1 0.1 0.2 0.2 0.1 0.1 0.2 0.2l2.2 1.2q0.1 0.1 0.3 0.1 0.1 0.1 0.2 0.1 0.2 0 0.3-0.1 0.2 0 0.3-0.1l2-1.2q0.2 0 0.3-0.2 0.1-0.1 0.2-0.2 0.1-0.1 0.1-0.3 0.1-0.1 0.1-0.3l0.5-3.8q0-0.1-0.1-0.2 0-0.1 0-0.2-0.1-0.1-0.2-0.1 0-0.1-0.1-0.1l-2.8-1q-0.2-0.1-0.3-0.1-0.1 0-0.3 0-0.1 0-0.2 0-0.1 0-0.3 0.1z" />
  </g>
</svg>

<svg xmlns="http://www.w3.org/2000/svg" width="16" height="16" version="1.2"><path d="M4.2 1c-1.1 0-1.7 0-2.1.2q-.6.3-.9.9c-.2.4-.2 1-.2 2.1V9c0 1.4 0 2.1.3 2.6.2.5.6.9 1.1 1.1.5.3 1.2.3 2.6.3h1.543a1 1 0 0 0-.143-.2l-.2-.4q0-.1-.1-.3l-.5-5.3v-.2q0-.2.1-.3 0-.1.1-.2.1 0 .3-.1l3.8-1.3q.1-.1.3-.1.2-.1.3-.1.2 0 .4.1.2 0 .3.1l2.782.952c-.027-.566-.1-.947-.283-1.252-.2-.5-.6-.9-1.1-1.1C12.1 3 11.4 3 10 3H8.1q-.1 0-.2-.1l-.1-.1-.6-.6c-.5-.5-.7-.7-.9-.8a4 4 0 0 0-.8-.3C5.3 1 5 1 4.3 1z" style="fill:#8080a0"/><path d="M10 6 7.2 7q-.1 0-.2.1l-.1.1q0 .1-.1.2v.2l.5 3.9v.3q.1.1.1.2l.2.2.2.2 2.2 1.2q.1.1.3.1.1.1.2.1.2 0 .3-.1.2 0 .3-.1l2-1.2q.2 0 .3-.2l.2-.2q.1-.1.1-.3.1-.1.1-.3l.5-3.8q0-.1-.1-.2v-.2q-.1-.1-.2-.1 0-.1-.1-.1l-2.8-1q-.2-.1-.3-.1h-.5q-.1 0-.3.1" style="fill:#f1667f"/></svg>
